X: 8
T:Himno do Antergo Reino de Galicia
M:2/4
L:1/16
Q:100
R:Marcha
A:Galicia
N:Repertorio básic
K:C
 |: B,4 C4 | D6 CD | E2DE FEDE | C8 |  C4D4 | E6 DE| F2EF GFEF | D8 :| B
,4
C4| D6 CD | E2DE FEDE | C4 C2C2 
|: c2B2 A2G2 | F4 {G}FEFG | F4 {G}FEFG | F6 GA| B2c2 A2B2 | G4 {A}GFGA |
 G2EG F2D
F |1 E4 E2E2 :|2 "D.C."E8 ||

